fa/language.svg

<svg xmlns="http://www.w3.org/2000/svg" viewBox="0 0 640 512" height="1em" width="1em">
  <path d="M448 164c11 0 20 8.1 20 20v4h60c11 0 20 8.1 20 20 0 11-9 20-20 20h-2l-1.6 4.5c-8.9 23.6-22.5 46.6-39.7 65.4.9.5 1.8.2 2.7 1.6l18.9 11.3c9.5 5.7 12.5 18 6.8 27.5-5.6 9.5-17.9 12.5-27.4 6.8l-18.9-11.3c-4.4-2.7-9.7-5.5-13.1-8.5-10.5 7.5-21.9 14-33.9 19.4l-3.7 1.6c-10.1 4.5-21.9-.1-26.4-10.2s.1-21.9 10.2-26.4l3.6-1.6c6.4-2.9 12.6-7 18.5-9.8l-12.1-12.2c-7.9-7.8-7.9-20.4 0-28.2 7.8-7.9 20.4-7.9 28.2 0l14.6 14.5.6-.3c12.4-12.2 22.5-27.4 29.8-45H376c-11.9 0-20-8.1-20-20 0-11 8.1-20 20-20h52v-4c0-11 8.1-20 20-20v.9zm-288 69.2 19 42.8h-38.9l19.9-42.8zM0 128c0-35.35 28.65-64 64-64h512c35.3 0 64 28.65 64 64v256c0 35.3-28.7 64-64 64H64c-35.35 0-64-28.7-64-64V128zm320 256h256V128H320v256zM178.3 175.9c-3.2-7.2-10.4-11.9-18.3-11.9s-15.1 4.7-18.3 11.9l-63.98 144c-4.48 9.2.06 21.9 10.16 26.4 10.09 4.5 21.92-.1 26.42-10.2l8.9-21h73.6l8.9 21c4.5 10.1 16.3 14.7 26.4 10.2 10.1-4.5 14.7-17.2 10.2-26.4l-64-144z"/>
</svg>

<svg xmlns="http://www.w3.org/2000/svg" viewBox="0 0 640 512" height="1em" width="1em">
  <path d="M448 164C459 164 468 172.1 468 184V188H528C539 188 548 196.1 548 208C548 219 539 228 528 228H526L524.4 232.5C515.5 256.1 501.9 279.1 484.7 297.9C485.6 298.4 486.5 298.1 487.4 299.5L506.3 310.8C515.8 316.5 518.8 328.8 513.1 338.3C507.5 347.8 495.2 350.8 485.7 345.1L466.8 333.8C462.4 331.1 457.1 328.3 453.7 325.3C443.2 332.8 431.8 339.3 419.8 344.7L416.1 346.3C406 350.8 394.2 346.2 389.7 336.1C385.2 326 389.8 314.2 399.9 309.7L403.5 308.1C409.9 305.2 416.1 301.1 422 298.3L409.9 286.1C402 278.3 402 265.7 409.9 257.9C417.7 250 430.3 250 438.1 257.9L452.7 272.4L453.3 272.1C465.7 259.9 475.8 244.7 483.1 227.1H376C364.1 227.1 356 219 356 207.1C356 196.1 364.1 187.1 376 187.1H428V183.1C428 172.1 436.1 163.1 448 163.1L448 164zM160 233.2L179 276H140.1L160 233.2zM0 128C0 92.65 28.65 64 64 64H576C611.3 64 640 92.65 640 128V384C640 419.3 611.3 448 576 448H64C28.65 448 0 419.3 0 384V128zM320 384H576V128H320V384zM178.3 175.9C175.1 168.7 167.9 164 160 164C152.1 164 144.9 168.7 141.7 175.9L77.72 319.9C73.24 329.1 77.78 341.8 87.88 346.3C97.97 350.8 109.8 346.2 114.3 336.1L123.2 315.1H196.8L205.7 336.1C210.2 346.2 222 350.8 232.1 346.3C242.2 341.8 246.8 329.1 242.3 319.9L178.3 175.9z"/>
</svg>
